X: 82
T: the Providence Reel
R: reel
Z: 2012 John Chambers <jc@trillian.mit.edu>
B: "100 Essential Irish Session Tunes" 1995 Dave Mallinson, ed.
M: 4/4
L: 1/8
K: D
z |\
"A7"E3F "D"DEFA | d2fd gdfd | "G"edBd "D"ADFA | "Em"BdAF GFED |\
"A7"EDCE "D"DEFA | d2fd gdfd | "G"edBd "D"A2FA | "G"Bd"A7"AG "D"FD D :|
|: e |\
"D"fd~d2 fdad | fd~d2 "A"ecAe | "D"fd~d2 fdad | "A7"ceag "D"fdde |\
"D"fgaf "A7"gfec | "Bm"dBAF "G"G2FG | "A"A3B ABde | "A7"faeg "D"fd d :|

%%sep 2 1 500
%%sep 1 1 500

